X:1
T:Sonate No. 8 “Pathétique”
T:2nd Movement - Op. 13 Arranged for Guitar Duo
T:Ludwig van Beethoven
T:Arr: J. J. Olson
T:by Mutopia - Pubblico dominio 
T:by Mutopia - Pubblico dominio 
T:by Mutopia - Pubblico dominio 
T:by Mutopia - Pubblico dominio 
T:by Mutopia - Pubblico dominio 
T:by Mutopia - Pubblico dominio 
T:by Mutopia - Pubblico dominio 
T:by Mutopia - Pubblico dominio 
Z:by Mutopia - Pubblico dominio
%%score { ( 1 2 ) ( 3 4 ) }
L:1/8
Q:1/4=32
M:2/4
K:G
V:1 treble-8 nm="Guitar I"
V:2 treble-8 
V:3 treble-8 nm="Guitar II"
V:4 treble-8 
V:1
"^Adagio cantabile""^II""^A" !0!B2 !1!A2 | !2!d3"^I" !1!c | !0!B"^II"!2!d!2!g!4!a | %3
"^(II)" !2!d3 !4!^d | !4!e2 A3/2"^I"(!0!B/4!1!c/4) | !3!d2 !1!^G2 | %6
 !1!c2"^II" .!3!B/.!1!A/.!4!G/.!3!F/ |"^(II)" !3!!1![FA]2 !0!G x |"^B""^B_VII" !1!b2 !4!a2 | %9
 !4!d'3 !2!c' |"^b_VII" !1!b"^VII"!4!d'"^b_XII\nG"!4!g'!4!a' |"^b_X" !1!d'3 !3!^d' | %12
"^(X)" !4!e'2 a3/2"^VII"(!1!b/4!2!c'/4) |"^(VII)" !4!d'2 !3!^g2 | %14
"^b_V" !0!!4![A,c']2 .!3!b/.!1!a/.!4!g/.!3!f/ |"^III" !4!a2 !1!g z3/4 !0!B/4 | %16
"^C""^XII" !1!b2- b/"^G"!3!g'/"^F#"!2!f'/"^E"!1!e'/ | %17
"^B" !4!b'2- b'/"^G"!4!g'/"^F#"!3!f'/"^E"!1!e'/ | !2!b2- b/"^G"!4!g'/"^F#"!3!f'/"^E"!1!e'/ | %19
"^IX" !2!d'!1!^c'- !turn!c'"^E"!4!e'/>!2!d'/ | !2!d'2"^VI" !turn!e3/2!3!g/4!2!b/4 | %21
{!1!^a!2!b!4!^c'} !2!b/4"^X"!1!!2!=a/4"^F#"!1!f'/-f'/"^IX\nE"!4!e'/4!2!d'/4 !1!^c'/4!4!!2!b/4!2!a/4!1!^g/4!4!b/4!2!a/4!4!!3!=g/4!1!e/4 | %22
"^VII" !1!d z/"^II" !1!A/ !3!F/!1!A/!3!F/!4!D/ | %23
"^D""_cresc." (!4!D/!3!^C/)"^I"(!4!C/!2!B,/) (!2!B,/!1!^A,/)(!1!A,/!0!=A,/) | %24
 !0![A,D] z z"^II" !1!A/>!2!d/ |"^(II)""_cresc." (!2!d/!1!^c/)(!1!c/!0!B/) !3!B/!2!^A/!3!A/!1!=A/ | %26
 !4!!3!!1![DFA]4- | [DFA]4 |"^E""^(II)"!p! !0!B2 !1!A2 | !2!c3"^I" !1!c | !0!B"^II"!2!d!2!g!4!a | %31
"^(II)" !2!d3 !4!^d | !4!e2 A3/2"^I"(!0!B/4!1!c/4) | !3!d2 !1!^B2 | %34
"^(I)" !1!c2"^II" .!3!B/.!1!A/.!4!G/.!3!F/ | !3!!1![FA]2 !0!G !2!d | %36
[K:Bb]"^F""^b_III"!pp! !1!g!4!b!3!a!1!g |"^b_VII" !1!^f!2!c'"^III" z2 |"^b_III" !1!g!4!b!3!a!1!g | %39
"^b_II" !3!g!1!^f (3!3![^FAd]/[FAd]/[FAd]/ (3[FAd]/[FAd]/[FAd]/ | %40
"^b_III""_cresc." !1!g!4!b!3!a!1!g |"^B_VI" !1!f- (3f/.!2!d/.!3!B/ !1!b- (3b/.!4!g/.!3!e/ | %42
"^B_VIII" !4!e'- (3e'/.!1!c'/.!3!a/"^(VIII)" .!4!b"^VII" .!2!!3!!1![FBd] | %43
"^III" (3!3!!1!!2![GBe]/[GB]/[GB]/ (3[GB]/[GB]/[GB]/"_dim." (3[GB]/[GB]/[GB]/ (3[GB]/[GB]/[GB]/ | %44
!pp!"^G" !2!e!1!g!4!f!2!e |"^b_III" !1!d!2!_a z2 |"^b_III" !2!e!1!g!2!e!1!d |"^XI" !1!^c3 c | %48
 ^c3 c |"^X""_cresc." !1!=c3 c |[K:G]"^H""^II"!p! !0!B2 !1!A2 | !2!d3"^I" !1!c | %52
"^(I)" !0!B"^II"!2!d!2!g!4!a | !2!d3 !4!^d | !4!e2 A3/2"^I"!0!B/4!1!c/4 |"^(I)" !3!d2 !1!^G2 | %56
 !1!c2"^III" (3!4!c/"^II"!4!B/!1!A/ (3!1!A/!4!G/!3!F/ | !3!!1![FA]2 G (3.!0!B/.!1!d/"^VII".!2!g/ | %58
"^I""^B_III" !1!b2 !4!a2 |"^VIII" !4!d'3 !2!c' | %60
"^b-VII" !1!b"^VII"!4!d'"^b_XIII\nG"!4!g'"^XII\nA"!4!a' |"^b_X" !1!d'3 !3!^d' | %62
 !4!e'2"^VII" !3!a3/2!1!b/4!2!c'/4 | !4!d'2 !3!^g2 | %64
"^b_V" !4!c'2 (3!4!c'/!3!b/.!1!a/ (3a/!4!g/.!3!f/ |"^III" !2!!1![Bg] z z !1!d/>!2!d/ | %66
"^J""^II"!<(! !4!e- (3e/!2!d/.c/ (3.!3!B/!<)!!>(!.!1!A/.!4!G/ !3!F/4!4!c/4!1!A/4!3!F/4!>)! | %67
"^(II)" !turn!!4!G/>!3!B/ !4!D z"^VII     ..." !1!!4![dd']/>[^d^d']/ | %68
 [ee']- (3[ee']/[=d=d']/.[cc']/"^IV" (3.[Bb]/"^VII".[Aa]/.[Gg]/"^IV" (3[Ff]/"^V"[cc']/"^IV"[Ff]/ | %69
 !1!!4![Gg] z"^VII"{/!4!d'} (3!2!c'/b/!2!c'/"^VIII" (3!4!e'/!2!d'/.!1!c'/ | %70
"^VII" !1!b z"^V"{/!4!b} (3!1!a/!1!^g/a/ (3!4!c'/!3!b/.!1!a/ | %71
 !4!=g z"^II"{/!4!B} (3!1!A/!1!^G/!1!A/ (3!4!c/!3!B/.!1!A/ | %72
!pp! !4!=G/ z/"^V" !3!!1![B,DG]/ z/"^II" !fermata!!2!!1!!0![G,B,G]2 |] %73
V:2
 !0!G/!4!D/G/D/ !3!F/!4!D/F/D/ | !0!G/!0!D/G/D/ !1!A/D/!2!A/D/ | %2
w: =~E * * * * * * *||
 !0!!0!G/!0!D/!1!A/D/ !0!B/!0!G/!1!^c/!0!G/ | !3!F/!1!A/F/A/ F/A/F/A/ | %4
w: ||
 !3!F/!1!A/F/A/ F/!4!D/F/!0!D/ | !0!G/!0!D/G/D/ D/!2!B,/D/B,/ | !2!E/!3!C/E/C/ !2!C/C/C/C/ | %7
w: |||
 !2!C/!4!D/C/D/ (3.!1!B,/.!0!D/.!0!G/ (3.!0!B/"^VII".!1!d/.!2!g/ | !3!B/!1!d/B/d/ !1!A/d/A/d/ | %9
w: ||
 !1!d/!2!g/d/g/ d/!4!a/d/a/ | !1!d/!2!g/d/a/ !1!g/!1!b/!1!g/!2!^c'/ | !2!f/!1!a/f/a/ f/a/f/a/ | %12
w: |||
 !2!f/!1!a/f/a/ f/!3!d/f/!1!d/ | !2!g/!1!d/g/d/ d/!2!B/d/B/ | !1!e/!1!c/e/c/ c/c/c/c/ | %15
w: |||
 !3!c/!1!d/c/d/ !2!B x | x4 | x4 | x4 | x4 | x4 | x4 | x4 | x4 | x4 | x4 | x4 | x4 | %28
w: |||||||||||||
 !0!G/!4!D/G/D/ !3!F/!4!D/F/D/ | !0!G/!0!D/G/D/ !1!A/D/!2!A/D/ | %30
w: ||
 !0!G/!0!D/!1!A/D/ !0!B/!0!G/!1!^c/!0!G/ | !3!F/!1!A/F/A/ F/A/F/A/ | %32
w: ||
 !3!F/!1!A/F/A/ F/!4!D/F/!0!D/ | !0!G/!0!D/G/D/ E/!2!B,/D/B,/ | !2!E/!3!C/E/C/ !2!C/C/C/C/ | %35
w: |||
 !2!C/!4!D/C/D/ !1!B, z | %36
w: |
[K:Bb] (3!1![Bd]/[Bd]/[Bd]/ (3[Bd]/[Bd]/[Bd]/ (3[Bd]/[Bd]/[Bd]/ (3[Bd]/[Bd]/[Bd]/ | %37
w: |
 (3!1!d/d/d/ (3d/d/d/ (3!3!!1![cd]/[cd]/[cd]/ (3[cd]/[cd]/[cd]/ | %38
w: |
 (3!1![Bd]/[Bd]/[Bd]/ (3[Bd]/[Bd]/[Bd]/ (3[Bd]/[Bd]/[Bd]/ (3[Bd]/[Bd]/[Bd]/ | %39
w: |
 (3!1!!2![Ad]/[Ad]/[Ad]/ (3[Ad]/[Ad]/[Ad]/ x2 | %40
w: |
 (3!1![Bd]/[Bd]/[Bd]/ (3[Bd]/[Bd]/[Bd]/ (3[Bd]/[Bd]/[Bd]/ (3[Bd]/[Bd]/[Bd]/ | %41
w: |
 (3B,/B,/B,/ (3B,/B,/B,/ (3B,/B,/B,/ (3B,/B,/B,/ | (3!1!F/F/F/ (3F/F/F/ (3!1!B/B/B/ x | x4 | %44
w: |||
 (3!3!!1![GB]/[GB]/[GB]/ (3[GB]/[GB]/[GB]/ (3[GB]/[GB]/[GB]/ (3[GB]/[GB]/[GB]/ | %45
w: |
 (3!4!!1![_AB]/[AB]/[AB]/ (3[AB]/[AB]/[AB]/ (3[AB]/[AB]/[AB]/ (3[AB]/[AB]/[AB]/ | %46
w: |
 (3!3!!1![GB]/[GB]/[GB]/ (3[GB]/[GB]/[GB]/ (3[GB]/[GB]/[GB]/ (3[GB]/[GB]/[GB]/ | %47
w: |
 (3[GB]/[GB]/[GB]/ (3[GB]/[GB]/[GB]/ (3[GB]/[GB]/[GB]/ (3[GB]/[GB]/[GB]/ | %48
w: |
 (3[GB]/[GB]/[GB]/ (3[GB]/[GB]/[GB]/ (3[GB]/[GB]/[GB]/ (3[GB]/[GB]/[GB]/ | %49
w: |
 (3!0!!3![GA]/[GA]/[GA]/ (3[GA]/[GA]/[GA]/"^I" (3!4!!2![^FA]/[FA]/[FA]/ (3[FA]/[FA]/[FA]/ | %50
w: |
[K:G] (3!1!B,/.D/.D/ (3!0!G/.D/.D/ (3!3!F/.D/.D/ (3F/.D/.D/ | %51
w: |
 (3!0!G/.!0!D/.D/ (3G/.D/.D/ (3A/.D/.D/ (3!2!A/.D/.D/ | %52
w: |
 (3!0!G/.!0!D/.D/ (3!1!A/.D/.D/ (3!0!B/.G/.G/ (3!1!^c/.G/.G/ | %53
w: |
 (3!3!F/.!1!A/.A/ (3F/.A/.A/ (3F/.A/.A/ (3!3!F/.A/.A/ | %54
w: |
 (3!3!F/!1!A/A/ (3F/A/A/ (3F/!4!D/D/ (3F/!0!D/D/ | %55
w: |
 (3!0!G/!0!D/D/ (3G/D/D/ (3D/!2!B,/B,/ (3D/B,/B,/ | %56
w: |
 (3!2!E/!3!C/C/ (3E/C/C/ (3!2!F/!2!C/C/ (3C/C/C/ | (3!2!C/D/D/ (3C/D/D/ (3.!1!C/.!0!D/.!0!G/ x | %58
w: ||
 (3!3!B/!1!d/d/ (3B/d/d/ (3!1!A/!1!d/d/ (3A/d/d/ | %59
w: |
 (3!1!d/!2!g/g/ (3d/g/g/ (3d/!4!a/a/ (3!1!d/!4!a/a/ | %60
w: |
 (3!1!d/!2!g/g/ (3!1!d/!4!a/a/ (3!1!g/!1!b/b/ (3!1!g/!2!^c'/c'/ | %61
w: |
 (3!2!f/!1!a/a/ (3f/a/a/ (3f/a/a/ (3f/a/a/ | (3!2!f/!1!a/a/ (3f/a/a/ (3!4!f/!3!d/d/ (3f/d/d/ | %63
w: ||
 (3!2!g/!1!d/d/ (3g/d/d/ (3d/!2!B/B/ (3d/B/B/ | (3!1!e/!1!c/c/(3e/c/c/ (3!3!f/c/c/(3c/c/c/ | x4 | %66
w: |||
 x4 | x4 | x4 | x4 | x2 !3!f2 | x2 !3!F2 | x4 |] %73
w: |||||||
V:3
 !4!G,2 !2!C2 | !1!B,2 !3!F,2 | !4!G,!3!F,!1!E,!1!E |"^(II)" !4!D2 !0!D,2 | !2!C2 C2 | %5
"^b_II" !1!B,2 !1!E,2 | !0!A,2 !0!D,2 |"^III" !3!G,!2!F, G, z | !4!G/!0!D/G/D/"^II" !3!F/D/F/D/ | %9
 !4!G/D/G/D/ !4!F/!0!D/F/D/ |"^III" !4!G/!0!D/"^II"!4!F/!0!D/"^b_II" !1!E/!4!G,/E/G,/ | %11
"^(III)" !0!D,/!3!F,/!0!A,/!4!D/ !3!F/!1!A/F/A/ | !2!C/!3!F,/!0!A,/!2!C/ !3!F/!1!A/F/C/ | %13
"^II" B,/!0!D/B,/D/"^b_II" !1!B,/!1!E/B,/E/ |"^(II)" !2!C/!1!E/C/E/ !0!A,/!0!D/A,/D/ | %15
"^IV" z/ !3!D/!1!F/D/ !4!G z | z/"^(IV)" B/B/B/ B/B/B/B/ | %17
"^b_IV" !3!!1![^DFB]/[DFB]/[DFB]/[DFB]/ !4!!2!!1![EGB]/[EGB]/[EGB]/[EGB]/ | %18
"^II" !2!!1!!3![FA^d]/[FAd]/[FAd]/[FAd]/"^IV" !2!!1!!3![GBe]/[GBe]/[GBe]/[GBe]/ | %19
"^VII" !1!!4!!3![Aeg]/[Aeg]/[Aeg]/[Aeg]/ !2![^Aeg]/[Aeg]/"^(VI)"!1![A^cg]/[Acg]/ | %20
"^b_VII" !3!!1![Bdf]/[Bdf]/[Bdf]/[Bdf]/ !4!!1![Gd]/[Gd]/[Gd]/[Gd]/ | %21
 z/"^VII" !1![Adf]/[Adf]/[Adf]/ z/"^IV\n" !4!!1!!2![A,^CG]/[A,CG]/[A,CG]/ | !2!!1![DF] z z2 | %23
"^II" !1!!0![EG][EG][EG]!3![^CEG] |"^IV" !0!!1![D,F] z/ !4!A,/ !1!F,/A,/F,/!0!D,/ | %25
"^I" !0!!2![A,EG]2 !4!!2!!0![^CEG]2 | %26
!p!!<(! (!2!E/!1!_E/)(!1!E/!0!D/)"^III" (!3!D/!2!^C/)(!2!C/!3!D/)!<)! | %27
!>(! (!3!E/!4!_E/)(!4!E/!3!D/)!pp!"^II" (!4!D/!3!^C/)(!3!C/!2!D/)!>)! |"^(II)" !1!B,2 !2!C2 | %29
 !1!B,2 !3!F,2 | !4!G,!3!F,!1!E,!1!E |"^(II)" !4!D2 !0!D,2 | !2!C2 C2 |"^b_II" !1!B,2 !1!E,2 | %34
 !0!A,2 !0!D,2 | !4!G,!3!F, !4!G, z |[K:Bb] !4!!0![G,G]2 z2 | %37
"^b_I" (3!1!c/c/c/ (3c/c/!1!c/ (3.!2![Ac]/.!2!A/.!0!=G/ (3.!4!^F/.!2!=E/.!0!D/ |"^II" !4!G z z2 | %39
 !4!D-"^I" (3D/!0!D/!4!^C/ (3.D/.!1!E/.D/ (3.!3!=C/.!1!B,/.!0!A,/ |"^III" !3!G, z z2 | %41
"^(III)" (3!4!!3!!1![_A,DF]/[A,DF]/[A,DF]/ (3[A,DF]/[A,DF]/[A,DF]/"^V" (3!1!!3!!2![G,EG]/[G,EG]/[G,EG]/ (3[G,EG]/[G,EG]/[G,EG]/ | %42
 (3!3!!1!!2![CEA]/[CEA]/[CEA]/ (3[CEA]/[CEA]/[CEA]/ (3!1!!2!!0![B,EG]/[B,EG]/[B,EG]/ _A | %43
 !1!!2![E,E] z z2 | !1!!2![E,E]2 z2 | !3!F- (3F/F/!2!=E/ (3.F/.F/.!1!_E/(3.D/.!3!C/"^b_I".!1!B,/ | %46
"^I" !1!E z z2 | (3z/"^II" .!1!=E,/.!4!G,/"^I" (3.!1!B,/.!4!^C/"^II".!1!=E/ !4!G z | %48
 (3z/"^II" .!1!=E,/.!4!G,/"^I" (3.!1!B,/.!4!^C/"^II".!1!=E/ !4!G z | %49
 (3z/"^I" !1!E,/"^II""^II"!4!G,/ !0!A, (3z/ !0!D,/!3!^F,/ (3!0!D/D/D/ |[K:G]"^(II)" !4!G,2 !2!C2 | %51
 !1!B,2 !3!F,2 |"^(II)" !4!G,!3!F,!1!E,!1!E | !4!D2 !0!D,2 | !2!C2 C2 |"^b_II" !1!B,2 !1!E,2 | %56
 !0!A,2 !0!D,2 |"^III" !3!G,!2!F, !3!G, z | %58
"^(III)" (3(!4!G/!0!D/)D/ (3(G/D/)D/"^II" (3(!3!F/!0!D/)D/ (3(F/D/)D/ | %59
 (3(!4!G/!0!D/)D/ (3(G/D/)D/ (3(!4!F/D/)D/ (3(F/D/)D/ | %60
"^III" (3(!4!G/!0!D/)D/"^II" (3(!4!F/!0!D/)D/ (3(!1!E/!4!G,/)G,/ (3(E/G,/)G,/ | %61
"^(II)" (3.!0!D/.!3!F,/.!0!A,/ (3.!4!D/.!3!F/.!1!A/ !2!d2 | %62
 (3.!2!C/.!3!F,/.!0!A,/ (3.!2!C/.!3!F/.!1!A/ !4!c2 | !3!B2 !1!E2 | %64
"^(II)" !0!A,2 (3!0![D,A,]/!4!D/D/ (3!0!D,/!0!D/!0!D/ | %65
!pp! (3!4!G,/.!0!D/.D/(3.D/.D/.D/ (3D/D/D/(3D/D/D/ | %66
 (3!2!!0![CD]/[CD]/[CD]/(3[CD]/[CD]/[CD]/ (3[CD]/[CD]/[CD]/(3[CD]/[CD]/[CD]/ | %67
"^(II)" (3!4!!1!!0![G,B,D]/.D/.D/ (3.D/.D/.D/ (3D/D/D/ (3D/D/D/ | %68
!<(! (3!0!!2![D,CD]/[D,CD]/[D,CD]/ (3[D,CD]/[D,CD]/!<)![D,CD]/!>(! (3[D,CD]/[D,CD]/[D,CD]/ (3[D,CD]/[D,CD]/!>)![D,CD]/ | %69
 !4!!1!!0![G,B,D] z [df]2 |"^III" !3!!1![Gg] z !3!!4![Dc]2 | !3!!2![GB] z"^II" !0!!2![D,C]2 | %72
 !4!!1![G,B,]/ z/ !4!!0![G,D]/ z/ !fermata!!4!!1![G,B,]2 |] %73
V:4
 x4 | x4 | x4 | x4 | x4 | x4 | x4 | x4 | !3!G,2 !2!C2 | !1!B,2 !3!F,2 | !3!G,!3!F,!1!E,E, | x4 | %12
 x4 | !1!B,2 !1!E,2 | x2 !0!D,2 | !2!G,3 z | x4 | x4 | x4 | x4 | x4 | x4 | x4 | !0!A,4 | x4 | x4 | %26
 x4 | x4 | x4 | x4 | x4 | x4 | x4 | x4 | x4 | x4 |[K:Bb] x4 | (!2!A (3A/)A/!1!^G/ x2 | x4 | x4 | %40
 x4 | x4 | x3 (3!3![F,B,]/[F,B,]/[F,B,]/ | x4 | x4 | x4 | x4 | x4 | x4 | x3 A, |[K:G] x4 | x4 | %52
 x4 | x4 | x4 | x4 | x4 | x4 | !3!G,2 !2!C2 | !1!B,2 !3!F,2 | !3!G,!3!F,!1!E,E, | x4 | x4 | x4 | %64
 x4 | x4 | x4 | x4 | x4 | x4 | x4 | x4 | x4 |] %73

